;FLAVOR:Marlin
;TIME:5451
;Filament used: 4.97654m
;Layer height: 0.2
;MINX:48.2
;MINY:23.948
;MINZ:0.2
;MAXX:171.8
;MAXY:106.273
;MAXZ:4.2
;TARGET_MACHINE.NAME:Creality Ender-3 S1 Pro
;Generated with Cura_SteamEngine 5.6.0
M82 ;absolute extrusion mode
; Ender 3 S1 Pro Start G-code
; M413 S0 ; Disable power loss recovery
G92 E0 ; Reset Extruder

; Prep surfaces before auto home for better accuracy
M140 S60
M104 S200

G28 ; Home all axes
G1 Z10.0 F3000 ; Move Z Axis up little to prevent scratching of Heat Bed
G1 X0 Y0

M190 S60
M109 S200

G1 X0.1 Y20 Z0.3 F5000.0 ; Move to start position
G1 X0.1 Y200.0 Z0.3 F1500.0 E15 ; Draw the first line
G1 X0.4 Y200.0 Z0.3 F5000.0 ; Move to side a little
G1 X0.4 Y20 Z0.3 F1500.0 E30 ; Draw the second line
G92 E0 ; Reset Extruder
G1 Z2.0 F3000 ; Move Z Axis up little to prevent scratching of Heat Bed
G1 X5 Y20 Z0.3 F5000.0 ; Move over to prevent blob squish

G92 E0
G92 E0
G1 F2400 E-0.8
;LAYER_COUNT:21
;LAYER:0
M107
M204 S2000
G0 F7500 X49.821 Y29.225 Z0.2
M204 S500
;TYPE:SKIRT
G1 F2400 E0
G1 F1500 X50.364 Y28.417 E0.03238
G1 X50.931 Y27.713 E0.06244
G1 X51.656 Y26.961 E0.09719
G1 X52.392 Y26.324 E0.12956
G1 X53.124 Y25.794 E0.15962
G1 X54.021 Y25.259 E0.19436
G1 X54.899 Y24.838 E0.22674
G1 X55.812 Y24.496 E0.25917
G1 X56.749 Y24.237 E0.2915
G1 X57.716 Y24.059 E0.32421
G1 X58.855 Y23.963 E0.36222
G1 X59.512 Y23.948 E0.38408
G1 X160.104 Y23.948 E3.72979
G1 X160.984 Y23.961 E3.75906
G1 X161.956 Y24.02 E3.79145
G1 X162.919 Y24.166 E3.82384
G1 X163.866 Y24.397 E3.85626
G1 X164.754 Y24.697 E3.88744
G1 X165.646 Y25.087 E3.91982
G1 X166.529 Y25.574 E3.95336
G1 X167.28 Y26.076 E3.9834
G1 X168.095 Y26.734 E4.01824
G1 X168.793 Y27.412 E4.0506
G1 X169.429 Y28.149 E4.08298
G1 X169.999 Y28.939 E4.11538
G1 X170.461 Y29.715 E4.14542
G1 X170.915 Y30.657 E4.1802
G1 X171.244 Y31.535 E4.21139
G1 X171.513 Y32.507 E4.24493
G1 X171.69 Y33.473 E4.2776
G1 X171.785 Y34.603 E4.31531
G1 X171.8 Y35.278 E4.33777
G1 X171.799 Y94.673 E6.31325
G1 X171.788 Y95.436 E6.33863
G1 X171.731 Y96.409 E6.37105
G1 X171.586 Y97.372 E6.40344
G1 X171.357 Y98.318 E6.43581
G1 X171.046 Y99.242 E6.46824
G1 X170.654 Y100.133 E6.50062
G1 X170.186 Y100.985 E6.53295
G1 X169.664 Y101.766 E6.56419
G1 X169.031 Y102.551 E6.59773
G1 X168.406 Y103.202 E6.62775
G1 X167.617 Y103.89 E6.66257
G1 X166.857 Y104.44 E6.69377
G1 X165.99 Y104.957 E6.72734
G1 X165.112 Y105.379 E6.75974
G1 X164.201 Y105.721 E6.79211
G1 X163.262 Y105.982 E6.82452
G1 X162.296 Y106.16 E6.85719
G1 X161.145 Y106.258 E6.89561
G1 X160.47 Y106.273 E6.91807
G1 X59.764 Y106.272 E10.26757
G1 X59.031 Y106.261 E10.29195
G1 X58.059 Y106.204 E10.32433
G1 X57.096 Y106.058 E10.35673
G1 X56.15 Y105.829 E10.3891
G1 X55.226 Y105.517 E10.42154
G1 X54.336 Y105.125 E10.45388
G1 X53.513 Y104.674 E10.4851
G1 X52.674 Y104.113 E10.51867
G1 X51.97 Y103.547 E10.54871
G1 X51.217 Y102.822 E10.58348
G1 X50.58 Y102.086 E10.61585
G1 X50.05 Y101.355 E10.64588
G1 X49.514 Y100.458 E10.68064
G1 X49.092 Y99.58 E10.71304
G1 X48.75 Y98.668 E10.74543
G1 X48.49 Y97.73 E10.77781
G1 X48.312 Y96.761 E10.81058
G1 X48.214 Y95.582 E10.84993
G1 X48.2 Y94.931 E10.87158
G1 X48.201 Y35.473 E12.84916
G1 X48.212 Y34.773 E12.87245
G1 X48.27 Y33.8 E12.90487
G1 X48.416 Y32.837 E12.93726
G1 X48.646 Y31.891 E12.96965
G1 X48.959 Y30.968 E13.00206
G1 X49.351 Y30.078 E13.03441
G1 X49.821 Y29.225 E13.0668
M204 S2000
G0 F7500 X50.153 Y29.448
M204 S500
G1 F1500 X50.676 Y28.668 E13.09803
G1 X51.243 Y27.964 E13.1281
G1 X51.918 Y27.263 E13.16047
G1 X52.627 Y26.648 E13.19168
G1 X53.359 Y26.118 E13.22174
G1 X54.195 Y25.619 E13.25412
G1 X55.04 Y25.212 E13.28532
G1 X55.919 Y24.881 E13.31656
G1 X56.822 Y24.63 E13.34773
G1 X57.75 Y24.458 E13.37912
G1 X58.889 Y24.362 E13.41714
G1 X59.521 Y24.348 E13.43817
G1 X160.098 Y24.348 E16.78337
G1 X160.96 Y24.36 E16.81204
G1 X161.897 Y24.416 E16.84326
G1 X162.825 Y24.555 E16.87447
G1 X163.738 Y24.776 E16.90572
G1 X164.594 Y25.064 E16.93576
G1 X165.486 Y25.454 E16.96814
G1 X166.307 Y25.907 E16.99932
G1 X167.058 Y26.409 E17.02937
G1 X167.817 Y27.021 E17.0618
G1 X168.491 Y27.674 E17.09301
G1 X169.105 Y28.383 E17.1242
G1 X169.655 Y29.144 E17.15543
G1 X170.117 Y29.92 E17.18547
G1 X170.54 Y30.797 E17.21786
G1 X170.869 Y31.675 E17.24904
G1 X171.12 Y32.58 E17.28028
G1 X171.291 Y33.507 E17.31163
G1 X171.386 Y34.637 E17.34935
G1 X171.4 Y35.278 E17.37067
G1 X171.399 Y94.668 E19.34599
G1 X171.389 Y95.413 E19.37077
G1 X171.335 Y96.35 E19.40199
G1 X171.197 Y97.279 E19.43323
G1 X170.978 Y98.191 E19.46442
G1 X170.68 Y99.081 E19.49564
G1 X170.303 Y99.941 E19.52687
G1 X169.853 Y100.763 E19.55804
G1 X169.331 Y101.544 E19.58928
G1 X168.742 Y102.274 E19.62048
G1 X168.117 Y102.925 E19.6505
G1 X167.382 Y103.566 E19.68293
G1 X166.622 Y104.116 E19.71414
G1 X165.816 Y104.597 E19.74535
G1 X164.971 Y105.005 E19.77656
G1 X164.093 Y105.336 E19.80777
G1 X163.189 Y105.589 E19.83899
G1 X162.262 Y105.761 E19.87035
G1 X161.111 Y105.859 E19.90877
G1 X160.47 Y105.873 E19.9301
G1 X59.77 Y105.872 E23.27939
G1 X59.054 Y105.862 E23.30321
G1 X58.118 Y105.808 E23.33439
G1 X57.189 Y105.669 E23.36564
G1 X56.277 Y105.45 E23.39683
G1 X55.387 Y105.151 E23.42806
G1 X54.528 Y104.774 E23.45926
G1 X53.705 Y104.323 E23.49047
G1 X52.925 Y103.801 E23.52169
G1 X52.221 Y103.235 E23.55174
G1 X51.519 Y102.56 E23.58413
G1 X50.904 Y101.851 E23.61534
G1 X50.374 Y101.12 E23.64537
G1 X49.874 Y100.284 E23.67777
G1 X49.466 Y99.439 E23.70898
G1 X49.135 Y98.561 E23.74019
G1 X48.883 Y97.657 E23.77141
G1 X48.711 Y96.728 E23.80283
G1 X48.613 Y95.549 E23.84218
G1 X48.6 Y94.931 E23.86274
G1 X48.601 Y35.479 E25.84012
G1 X48.611 Y34.796 E25.86284
G1 X48.666 Y33.859 E25.89406
G1 X48.805 Y32.931 E25.92527
G1 X49.025 Y32.019 E25.95647
G1 X49.325 Y31.129 E25.98771
G1 X49.702 Y30.27 E26.01891
G1 X50.153 Y29.448 E26.05009
M204 S2000
G0 F7500 X50.486 Y29.67
M204 S500
G1 F1500 X50.988 Y28.919 E26.08014
G1 X51.555 Y28.215 E26.1102
G1 X52.181 Y27.565 E26.14022
G1 X52.862 Y26.972 E26.17025
G1 X53.594 Y26.442 E26.20031
G1 X54.369 Y25.979 E26.23034
G1 X55.182 Y25.586 E26.26037
G1 X56.027 Y25.266 E26.29042
G1 X56.896 Y25.023 E26.32043
G1 X57.784 Y24.857 E26.35048
G1 X58.923 Y24.761 E26.3885
G1 X59.53 Y24.748 E26.40869
G1 X160.093 Y24.748 E29.75343
G1 X160.937 Y24.759 E29.7815
G1 X161.839 Y24.812 E29.81156
G1 X162.732 Y24.944 E29.84158
G1 X163.61 Y25.155 E29.87162
G1 X164.466 Y25.443 E29.90165
G1 X165.293 Y25.805 E29.93168
G1 X166.085 Y26.24 E29.96173
G1 X166.836 Y26.742 E29.99178
G1 X167.539 Y27.309 E30.02182
G1 X168.189 Y27.936 E30.05186
G1 X168.781 Y28.618 E30.08189
G1 X169.311 Y29.349 E30.11192
G1 X169.773 Y30.125 E30.14196
G1 X170.166 Y30.938 E30.172
G1 X170.484 Y31.783 E30.20203
G1 X170.727 Y32.653 E30.23207
G1 X170.892 Y33.541 E30.26211
G1 X170.987 Y34.671 E30.29983
G1 X171 Y35.278 E30.32002
G1 X170.999 Y94.663 E32.29517
G1 X170.99 Y95.39 E32.31935
G1 X170.939 Y96.292 E32.3494
G1 X170.808 Y97.186 E32.37946
G1 X170.599 Y98.064 E32.40947
G1 X170.313 Y98.921 E32.43952
G1 X169.952 Y99.749 E32.46957
G1 X169.52 Y100.541 E32.49957
G1 X169.019 Y101.293 E32.52963
G1 X168.453 Y101.997 E32.55967
G1 X167.828 Y102.648 E32.58969
G1 X167.147 Y103.242 E32.61974
G1 X166.416 Y103.773 E32.64979
G1 X165.642 Y104.237 E32.67981
G1 X164.829 Y104.631 E32.70986
G1 X163.985 Y104.951 E32.73988
G1 X163.115 Y105.196 E32.76994
G1 X162.228 Y105.362 E32.79995
G1 X161.077 Y105.46 E32.83837
G1 X160.47 Y105.473 E32.85857
G1 X59.775 Y105.472 E36.2077
G1 X59.077 Y105.463 E36.23091
G1 X58.176 Y105.412 E36.26093
G1 X57.282 Y105.28 E36.29099
G1 X56.404 Y105.071 E36.32101
G1 X55.547 Y104.784 E36.35106
G1 X54.72 Y104.423 E36.38108
G1 X53.927 Y103.99 E36.41113
G1 X53.176 Y103.489 E36.44115
G1 X52.472 Y102.923 E36.4712
G1 X51.821 Y102.297 E36.50124
G1 X51.228 Y101.616 E36.53127
G1 X50.698 Y100.885 E36.5613
G1 X50.234 Y100.11 E36.59135
G1 X49.84 Y99.297 E36.62139
G1 X49.52 Y98.453 E36.65142
G1 X49.276 Y97.583 E36.68147
G1 X49.11 Y96.695 E36.71152
G1 X49.013 Y95.54 E36.75007
G1 X49 Y94.931 E36.77033
G1 X49.001 Y35.484 E38.74754
G1 X49.01 Y34.819 E38.76966
G1 X49.062 Y33.917 E38.79971
G1 X49.194 Y33.024 E38.82974
G1 X49.404 Y32.146 E38.85976
G1 X49.691 Y31.289 E38.88982
G1 X50.053 Y30.462 E38.91985
G1 X50.486 Y29.67 E38.94987
M204 S2000
G1 F2400 E38.14987
;MESH:wallet lid v4.stl
G0 F7500 X69.1 Y79.326
G0 X71.029 Y85.705
M204 S500
;TYPE:WALL-INNER
G1 F2400 E38.94987
G1 F1500 X70.277 Y85.794 E38.97506
G1 X69.525 Y85.702 E39.00025
G1 X68.819 Y85.448 E39.02521
G1 X68.184 Y85.032 E39.05046
G1 X67.672 Y84.487 E39.07533
G1 X67.293 Y83.832 E39.1005
G1 X67.08 Y83.108 E39.1256
G1 X67.033 Y82.355 E39.15069
G1 X67.165 Y81.616 E39.17566
G1 X67.463 Y80.923 E39.20075
G1 X67.917 Y80.32 E39.22586
G1 X68.492 Y79.834 E39.2509
G1 X69.162 Y79.497 E39.27584
G1 X69.9 Y79.326 E39.30104
G1 X70.659 Y79.324 E39.32628
G1 X71.39 Y79.499 E39.35128
G1 X72.054 Y79.837 E39.37606
G1 X72.621 Y80.309 E39.4006
G1 X73.086 Y80.924 E39.42625
G1 X73.381 Y81.617 E39.4513
G1 X73.516 Y82.358 E39.47635
G1 X73.471 Y83.11 E39.5014
G1 X73.253 Y83.828 E39.52636
G1 X72.874 Y84.483 E39.55153
G1 X72.363 Y85.034 E39.57652
G1 X71.731 Y85.443 E39.60156
G1 X71.029 Y85.705 E39.62648
M204 S2000
G1 F2400 E38.82648
G0 F7500 X71.062 Y85.8
G0 X72.458 Y85.188
G0 X93.378 Y86.371
G0 X96.782 Y86.88
M204 S500
G1 F2400 E39.62648
G1 F1500 X95.928 Y86.963 E39.65502
G1 X95.075 Y86.88 E39.68353
G1 X94.232 Y86.623 E39.71284
G1 X93.477 Y86.219 E39.74132
G1 X92.806 Y85.667 E39.77022
G1 X92.26 Y84.997 E39.79897
G1 X91.853 Y84.244 E39.82744
G1 X91.602 Y83.413 E39.85631
G1 X91.52 Y82.615 E39.88299
G1 X91.446 Y80.806 E39.94321
G1 X91.226 Y79.037 E40.0025
G1 X90.872 Y77.346 E40.05996
G1 X90.371 Y75.663 E40.11836
G1 X89.724 Y74.002 E40.17765
G1 X88.964 Y72.448 E40.23519
G1 X88.058 Y70.926 E40.2941
G1 X87.048 Y69.511 E40.35192
G1 X85.907 Y68.164 E40.41064
G1 X84.659 Y66.916 E40.46934
G1 X83.312 Y65.776 E40.52803
G1 X81.896 Y64.766 E40.58588
G1 X80.374 Y63.86 E40.64479
G1 X78.821 Y63.102 E40.70227
G1 X77.159 Y62.455 E40.76159
G1 X75.482 Y61.956 E40.81978
G1 X73.785 Y61.6 E40.87745
G1 X72.027 Y61.383 E40.93637
G1 X70.207 Y61.307 E40.99696
G1 X69.419 Y61.23 E41.02329
G1 X68.586 Y60.974 E41.05227
G1 X67.825 Y60.572 E41.0809
G1 X67.155 Y60.024 E41.10969
G1 X66.602 Y59.351 E41.13866
G1 X66.198 Y58.595 E41.16717
G1 X65.942 Y57.743 E41.19676
G1 X65.858 Y56.9 E41.22494
G1 X65.941 Y56.044 E41.25354
G1 X66.198 Y55.202 E41.28282
G1 X66.603 Y54.447 E41.31132
G1 X67.153 Y53.777 E41.34015
G1 X67.822 Y53.228 E41.36893
G1 X68.577 Y52.825 E41.3974
G1 X69.409 Y52.573 E41.42631
G1 X70.213 Y52.492 E41.45319
G1 X72.353 Y52.56 E41.5244
G1 X74.387 Y52.769 E41.59241
G1 X76.364 Y53.109 E41.65913
G1 X78.405 Y53.607 E41.729
G1 X80.368 Y54.23 E41.7975
G1 X82.27 Y54.982 E41.86553
G1 X84.121 Y55.862 E41.9337
G1 X85.884 Y56.853 E42.00096
G1 X87.632 Y58 E42.0705
G1 X89.223 Y59.207 E42.13692
G1 X90.82 Y60.597 E42.20734
G1 X92.255 Y62.033 E42.27486
G1 X93.617 Y63.599 E42.34389
G1 X94.847 Y65.223 E42.41165
G1 X95.967 Y66.934 E42.47966
G1 X96.985 Y68.744 E42.54873
G1 X97.859 Y70.589 E42.61664
G1 X98.601 Y72.469 E42.68386
G1 X99.225 Y74.436 E42.75249
G1 X99.714 Y76.44 E42.8211
G1 X100.06 Y78.454 E42.88907
G1 X100.27 Y80.506 E42.95768
G1 X100.337 Y82.531 E43.02507
G1 X100.26 Y83.382 E43.05349
G1 X100.004 Y84.236 E43.08314
G1 X99.597 Y84.997 E43.11184
G1 X99.052 Y85.668 E43.14059
G1 X98.378 Y86.22 E43.16957
G1 X97.625 Y86.623 E43.19798
G1 X96.782 Y86.88 E43.22729
M204 S2000
G1 F2400 E42.42729
G0 F7500 X96.636 Y86.992
G0 X98.481 Y86.37
G0 X98.479 Y94.492
G0 X160.2 Y94.673
M204 S500
G1 F2400 E43.22729
G1 F1500 X160.2 Y35.548 E45.19379
G1 X59.801 Y35.549 E48.53308
G1 X59.801 Y94.672 E50.49952
G1 X160.2 Y94.673 E53.8388
M204 S2000
G0 F7500 X160.6 Y95.073
M204 S500
;TYPE:WALL-OUTER
G1 F1500 X160.6 Y35.148 E55.83191
G1 X59.401 Y35.149 E59.19781
G1 X59.401 Y95.072 E61.19085
G1 X160.6 Y95.073 E64.55675
M204 S2000
G1 F2400 E63.75675
G0 F7500 X160.33 Y94.803
G0 X96.634 Y94.492
G0 X95.929 Y87.144
G0 X96.688 Y86.487
M204 S500
G1 F2400 E64.55675
G1 F1500 X95.908 Y86.559 E64.5828
G1 X95.13 Y86.479 E64.60881
G1 X94.372 Y86.244 E64.63521
G1 X93.686 Y85.873 E64.66115
G1 X93.104 Y85.394 E64.68622
G1 X92.593 Y84.775 E64.71291
G1 X92.217 Y84.067 E64.73958
G1 X91.989 Y83.307 E64.76597
G1 X91.918 Y82.576 E64.7904
G1 X91.845 Y80.773 E64.85041
G1 X91.621 Y78.971 E64.91081
G1 X91.26 Y77.248 E64.96936
G1 X90.75 Y75.533 E65.02887
G1 X90.09 Y73.841 E65.08928
G1 X89.316 Y72.258 E65.14788
G1 X88.393 Y70.707 E65.20791
G1 X87.364 Y69.265 E65.26683
G1 X86.201 Y67.893 E65.32666
G1 X84.93 Y66.622 E65.38644
G1 X83.558 Y65.46 E65.44624
G1 X82.115 Y64.431 E65.50519
G1 X80.564 Y63.508 E65.56522
G1 X78.981 Y62.735 E65.62381
G1 X77.289 Y62.076 E65.6842
G1 X75.58 Y61.568 E65.7435
G1 X73.851 Y61.205 E65.80226
G1 X72.06 Y60.984 E65.86228
G1 X70.246 Y60.909 E65.92267
G1 X69.476 Y60.83 E65.94841
G1 X68.738 Y60.604 E65.97409
G1 X68.062 Y60.245 E65.99954
G1 X67.424 Y59.721 E66.027
G1 X66.928 Y59.111 E66.05315
G1 X66.562 Y58.419 E66.07919
G1 X66.336 Y57.674 E66.10508
G1 X66.262 Y56.879 E66.13164
G1 X66.342 Y56.1 E66.15769
G1 X66.577 Y55.343 E66.18405
G1 X66.928 Y54.687 E66.20879
G1 X67.452 Y54.049 E66.23625
G1 X68.062 Y53.554 E66.26238
G1 X68.754 Y53.188 E66.28842
G1 X69.516 Y52.96 E66.31487
G1 X70.251 Y52.89 E66.33943
G1 X72.312 Y52.958 E66.40802
G1 X74.319 Y53.163 E66.47512
G1 X76.31 Y53.506 E66.54231
G1 X78.284 Y53.988 E66.6099
G1 X80.221 Y54.602 E66.67748
G1 X82.086 Y55.338 E66.74417
G1 X83.925 Y56.211 E66.81188
G1 X85.699 Y57.209 E66.87957
G1 X87.39 Y58.319 E66.94685
G1 X88.992 Y59.535 E67.01375
G1 X90.537 Y60.88 E67.08188
G1 X91.953 Y62.296 E67.14848
G1 X93.298 Y63.841 E67.21661
G1 X94.513 Y65.443 E67.28349
G1 X95.619 Y67.13 E67.35058
G1 X96.623 Y68.916 E67.41872
G1 X97.487 Y70.736 E67.48573
G1 X98.226 Y72.609 E67.5527
G1 X98.842 Y74.551 E67.62047
G1 X99.324 Y76.529 E67.68818
G1 X99.664 Y78.508 E67.75496
G1 X99.87 Y80.519 E67.8222
G1 X99.937 Y82.57 E67.89045
G1 X99.865 Y83.319 E67.91548
G1 X99.634 Y84.084 E67.94206
G1 X99.274 Y84.759 E67.9675
G1 X98.751 Y85.397 E67.99494
G1 X98.14 Y85.894 E68.02114
G1 X97.449 Y86.259 E68.04713
G1 X96.688 Y86.487 E68.07355
M204 S2000
G1 F2400 E67.27355
G0 F7500 X96.636 Y86.992
G0 X93.378 Y86.371
G0 X72.458 Y85.188
G0 X70.931 Y85.313
M204 S500
G1 F2400 E68.07355
G1 F1500 X70.274 Y85.389 E68.09555
G1 X69.618 Y85.313 E68.11751
G1 X69 Y85.086 E68.13941
G1 X68.456 Y84.733 E68.16098
G1 X67.984 Y84.228 E68.18397
G1 X67.674 Y83.693 E68.20454
G1 X67.474 Y83.039 E68.22728
G1 X67.436 Y82.396 E68.24871
G1 X67.56 Y81.709 E68.27193
G1 X67.826 Y81.106 E68.29385
G1 X68.207 Y80.596 E68.31502
G1 X68.714 Y80.172 E68.337
G1 X69.303 Y79.876 E68.35893
G1 X69.968 Y79.722 E68.38163
G1 X70.606 Y79.724 E68.40285
G1 X71.251 Y79.878 E68.42491
G1 X71.835 Y80.172 E68.44665
G1 X72.329 Y80.584 E68.46805
G1 X72.734 Y81.123 E68.49047
G1 X72.997 Y81.731 E68.51251
G1 X73.114 Y82.392 E68.53483
G1 X73.076 Y83.03 E68.55609
G1 X72.885 Y83.671 E68.57834
G1 X72.552 Y84.245 E68.60041
G1 X72.103 Y84.723 E68.62222
G1 X71.551 Y85.086 E68.64419
G1 X70.931 Y85.313 E68.66615
M204 S2000
G1 F2400 E67.86615
G0 F7500 X71.102 Y85.785
G0 X72.458 Y85.188
G0 X72.456 Y94.492
G0 X159.84 Y94.312
M204 S500
;TYPE:SKIN
G1 F2400 E68.66615
G1 F1500 X60.162 Y94.311 E71.98146
G1 X60.161 Y35.909 E73.92392
G1 X159.84 Y35.908 E77.23925
G1 X159.84 Y94.312 E79.18178
M204 S2000
G1 F2400 E78.38178
G0 F7500 X159.838 Y94.572
G0 X95.93 Y94.492
G0 X95.929 Y87.144
G0 X95.908 Y87.325
M204 S500
G1 F2400 E79.18178
G1 F1500 X96.838 Y87.234 E79.21286
