;FLAVOR:Marlin
;TIME:1134
;Filament used: 0.737253m
;Layer height: 0.2
;MINX:74.865
;MINY:17.849
;MINZ:0.2
;MAXX:145.136
;MAXY:68.221
;MAXZ:8.2
;TARGET_MACHINE.NAME:Creality Ender-3 S1 Pro
;Generated with Cura_SteamEngine 5.6.0
M82 ;absolute extrusion mode
; Ender 3 S1 Pro Start G-code
; M413 S0 ; Disable power loss recovery
G92 E0 ; Reset Extruder

; Prep surfaces before auto home for better accuracy
M140 S60
M104 S200

G28 ; Home all axes
G1 Z10.0 F3000 ; Move Z Axis up little to prevent scratching of Heat Bed
G1 X0 Y0

M190 S60
M109 S200

G1 X0.1 Y20 Z0.3 F5000.0 ; Move to start position
G1 X0.1 Y200.0 Z0.3 F1500.0 E15 ; Draw the first line
G1 X0.4 Y200.0 Z0.3 F5000.0 ; Move to side a little
G1 X0.4 Y20 Z0.3 F1500.0 E30 ; Draw the second line
G92 E0 ; Reset Extruder
G1 Z2.0 F3000 ; Move Z Axis up little to prevent scratching of Heat Bed
G1 X5 Y20 Z0.3 F5000.0 ; Move over to prevent blob squish

G92 E0
G92 E0
G1 F2400 E-0.8
;LAYER_COUNT:41
;LAYER:0
M107
M204 S2000
G0 F7500 X81.336 Y28.1 Z0.2
M204 S500
;TYPE:SKIRT
G1 F2400 E0
G1 F1500 X81.492 Y27.681 E0.01487
G1 X81.934 Y26.658 E0.05194
G1 X82.15 Y26.222 E0.06812
G1 X82.691 Y25.247 E0.10521
G1 X83.267 Y24.389 E0.13958
G1 X83.705 Y23.798 E0.16404
G1 X84.56 Y22.782 E0.20821
G1 X84.886 Y22.44 E0.22392
G1 X85.655 Y21.715 E0.25908
G1 X86.046 Y21.381 E0.27618
G1 X86.958 Y20.675 E0.31454
G1 X87.814 Y20.127 E0.34834
G1 X88.384 Y19.793 E0.37032
G1 X89.664 Y19.15 E0.41796
G1 X90.063 Y18.982 E0.43236
G1 X91.022 Y18.629 E0.46635
G1 X91.457 Y18.492 E0.48152
G1 X92.563 Y18.207 E0.5195
G1 X93.064 Y18.105 E0.53651
G1 X94.11 Y17.947 E0.57169
G1 X94.622 Y17.897 E0.5888
G1 X95.614 Y17.849 E0.62184
G1 X96.089 Y17.849 E0.63764
G1 X97.184 Y17.904 E0.6741
G1 X97.684 Y17.955 E0.69082
G1 X98.738 Y18.115 E0.72628
G1 X99.166 Y18.202 E0.7408
G1 X100.223 Y18.473 E0.7771
G1 X100.68 Y18.615 E0.79301
G1 X101.742 Y19.007 E0.83066
G1 X102.181 Y19.196 E0.84656
G1 X103.149 Y19.67 E0.88241
G1 X103.574 Y19.906 E0.89858
G1 X104.291 Y20.343 E0.92651
G1 X105.116 Y20.892 E0.95947
G1 X106.334 Y21.737 E1.00877
G1 X108.434 Y23.105 E1.09213
G1 X110.585 Y24.421 E1.176
G1 X112.767 Y25.671 E1.25964
G1 X114.972 Y26.854 E1.34287
G1 X117.226 Y27.982 E1.4267
G1 X119.511 Y29.048 E1.51056
G1 X121.835 Y30.049 E1.59472
G1 X124.146 Y30.969 E1.67745
G1 X126.576 Y31.862 E1.76356
G1 X128.898 Y32.636 E1.84497
G1 X131.269 Y33.355 E1.92737
G1 X135.071 Y34.368 E2.05824
G1 X136.018 Y34.663 E2.09123
G1 X137.291 Y35.2 E2.13718
G1 X137.689 Y35.399 E2.15198
G1 X138.78 Y36.022 E2.19377
G1 X139.13 Y36.251 E2.20768
G1 X139.863 Y36.778 E2.23771
G1 X140.622 Y37.427 E2.27092
G1 X141.309 Y38.106 E2.30305
G1 X141.548 Y38.365 E2.31477
G1 X142.168 Y39.097 E2.34668
G1 X142.502 Y39.553 E2.36548
G1 X142.749 Y39.912 E2.37997
G1 X143.411 Y41.005 E2.42247
G1 X143.575 Y41.316 E2.43417
G1 X143.973 Y42.161 E2.46523
G1 X144.251 Y42.888 E2.49112
G1 X144.601 Y44.053 E2.53158
G1 X144.695 Y44.45 E2.54515
G1 X144.926 Y45.77 E2.58972
G1 X144.965 Y46.13 E2.60176
G1 X145.019 Y46.817 E2.62468
G1 X145.059 Y47.713 E2.65451
G1 X145.125 Y50.158 E2.73586
G1 X145.136 Y51.264 E2.77265
G1 X145.126 Y51.988 E2.79673
G1 X145.041 Y54.85 E2.89197
G1 X144.968 Y55.953 E2.92873
G1 X144.854 Y56.909 E2.96075
G1 X144.729 Y57.545 E2.98231
G1 X144.66 Y57.849 E2.99268
G1 X144.253 Y59.219 E3.04022
G1 X144.115 Y59.588 E3.05332
G1 X143.554 Y60.846 E3.09913
G1 X143.407 Y61.126 E3.10965
G1 X142.671 Y62.332 E3.15664
G1 X142.458 Y62.635 E3.16896
G1 X141.867 Y63.399 E3.20109
G1 X141.339 Y63.986 E3.22735
G1 X140.294 Y64.979 E3.27529
G1 X139.949 Y65.265 E3.2902
G1 X139.195 Y65.837 E3.32168
G1 X137.961 Y66.577 E3.36953
G1 X137.398 Y66.865 E3.39057
G1 X136.514 Y67.267 E3.42287
G1 X135.671 Y67.567 E3.45263
G1 X135.313 Y67.677 E3.46508
G1 X134.006 Y67.991 E3.50979
G1 X133.581 Y68.065 E3.52414
G1 X132.614 Y68.186 E3.55655
G1 X131.643 Y68.221 E3.58887
G1 X130.343 Y68.21 E3.63211
G1 X91.222 Y67.154 E4.93375
G1 X90.182 Y67.111 E4.96837
G1 X89.415 Y67.057 E4.99395
G1 X88.464 Y66.937 E5.02583
G1 X88.076 Y66.87 E5.03892
G1 X87.27 Y66.7 E5.06632
G1 X86.699 Y66.556 E5.08591
G1 X85.624 Y66.226 E5.12331
G1 X85.264 Y66.094 E5.13606
G1 X84.477 Y65.772 E5.16434
G1 X83.92 Y65.517 E5.18472
G1 X82.75 Y64.892 E5.22884
G1 X82.402 Y64.677 E5.24244
G1 X81.887 Y64.338 E5.26295
G1 X81.455 Y64.035 E5.2805
G1 X80.839 Y63.567 E5.30623
G1 X80.551 Y63.329 E5.31866
G1 X79.636 Y62.486 E5.36004
G1 X79.195 Y62.029 E5.38116
G1 X78.505 Y61.24 E5.41602
G1 X78.206 Y60.862 E5.43205
G1 X77.622 Y60.053 E5.46524
G1 X77.324 Y59.596 E5.48338
G1 X76.833 Y58.761 E5.5156
G1 X76.6 Y58.319 E5.53222
G1 X76.191 Y57.449 E5.56419
G1 X76.011 Y57.016 E5.57979
G1 X75.648 Y56.009 E5.61539
G1 X75.483 Y55.466 E5.63427
G1 X75.251 Y54.559 E5.66541
G1 X75.159 Y54.12 E5.68032
G1 X75.008 Y53.185 E5.71183
G1 X74.939 Y52.576 E5.73221
G1 X74.872 Y51.544 E5.76661
G1 X74.865 Y51.079 E5.78208
G1 X74.895 Y50.1 E5.81465
G1 X74.938 Y49.551 E5.83297
G1 X75.061 Y48.569 E5.86588
G1 X75.15 Y48.045 E5.88356
G1 X75.367 Y47.071 E5.91675
G1 X75.478 Y46.663 E5.93082
G1 X75.768 Y45.756 E5.96249
G1 X76.079 Y44.92 E5.99215
G1 X77.165 Y42.174 E6.09037
G1 X78.015 Y39.823 E6.17352
G1 X78.798 Y37.445 E6.25679
G1 X79.526 Y35.011 E6.34129
G1 X80.179 Y32.572 E6.42527
G1 X80.836 Y29.801 E6.51998
G1 X81.047 Y28.993 E6.54776
G1 X81.336 Y28.1 E6.57898
M204 S2000
G0 F7500 X81.711 Y28.24
M204 S500
G1 F1500 X81.867 Y27.821 E6.59385
G1 X82.292 Y26.836 E6.62953
G1 X82.5 Y26.416 E6.64512
G1 X83.023 Y25.47 E6.68107
G1 X83.589 Y24.627 E6.71484
G1 X84.011 Y24.056 E6.73846
G1 X84.866 Y23.04 E6.78262
G1 X85.161 Y22.731 E6.79683
G1 X85.915 Y22.019 E6.83132
G1 X86.291 Y21.697 E6.84779
G1 X87.174 Y21.012 E6.88496
G1 X88.016 Y20.472 E6.91823
G1 X88.586 Y20.138 E6.9402
G1 X89.819 Y19.519 E6.98609
G1 X90.218 Y19.351 E7.00049
G1 X91.142 Y19.011 E7.03323
G1 X91.577 Y18.874 E7.0484
G1 X92.643 Y18.599 E7.08502
G1 X93.124 Y18.501 E7.10135
G1 X94.17 Y18.343 E7.13653
G1 X94.641 Y18.297 E7.15227
G1 X95.633 Y18.249 E7.1853
G1 X96.089 Y18.249 E7.20047
G1 X97.144 Y18.302 E7.2356
G1 X97.624 Y18.35 E7.25165
G1 X98.658 Y18.507 E7.28643
G1 X99.086 Y18.594 E7.30096
G1 X100.104 Y18.855 E7.33591
G1 X100.561 Y18.997 E7.35183
G1 X101.584 Y19.374 E7.38809
G1 X102.005 Y19.555 E7.40333
G1 X102.955 Y20.02 E7.43851
G1 X103.366 Y20.248 E7.45415
G1 X104.069 Y20.676 E7.48152
G1 X104.888 Y21.221 E7.51424
G1 X106.106 Y22.066 E7.56355
G1 X108.225 Y23.446 E7.64765
G1 X110.386 Y24.768 E7.73191
G1 X112.568 Y26.018 E7.81555
G1 X114.793 Y27.212 E7.89953
G1 X117.057 Y28.345 E7.98374
G1 X119.342 Y29.41 E8.06759
G1 X121.687 Y30.421 E8.15252
G1 X124.008 Y31.345 E8.23561
G1 X126.438 Y32.237 E8.32171
G1 X128.782 Y33.019 E8.40389
G1 X131.166 Y33.742 E8.48675
G1 X134.953 Y34.75 E8.61709
G1 X135.863 Y35.032 E8.64878
G1 X137.136 Y35.569 E8.69473
G1 X137.491 Y35.746 E8.70793
G1 X138.561 Y36.357 E8.74891
G1 X138.896 Y36.576 E8.76222
G1 X139.629 Y37.103 E8.79225
G1 X140.341 Y37.712 E8.82341
G1 X141.016 Y38.378 E8.85495
G1 X141.243 Y38.623 E8.86606
G1 X141.845 Y39.334 E8.89704
G1 X142.172 Y39.78 E8.91544
G1 X142.419 Y40.139 E8.92993
G1 X143.057 Y41.191 E8.97085
G1 X143.213 Y41.487 E8.98198
G1 X143.599 Y42.304 E9.01203
G1 X143.877 Y43.031 E9.03792
G1 X144.212 Y44.146 E9.07664
G1 X144.301 Y44.519 E9.0894
G1 X144.528 Y45.814 E9.13313
G1 X144.566 Y46.161 E9.14474
G1 X144.619 Y46.835 E9.16722
G1 X144.659 Y47.724 E9.19682
G1 X144.725 Y50.162 E9.27794
G1 X144.736 Y51.258 E9.3144
G1 X144.726 Y51.976 E9.33828
G1 X144.642 Y54.824 E9.43304
G1 X144.571 Y55.906 E9.46911
G1 X144.461 Y56.832 E9.50012
G1 X144.339 Y57.456 E9.52127
G1 X144.27 Y57.76 E9.53164
G1 X143.878 Y59.08 E9.57744
G1 X143.75 Y59.425 E9.58968
G1 X143.2 Y60.66 E9.63464
G1 X143.053 Y60.94 E9.64516
G1 X142.344 Y62.102 E9.69044
G1 X142.141 Y62.391 E9.70218
G1 X141.57 Y63.131 E9.73327
G1 X141.042 Y63.718 E9.75953
G1 X140.038 Y64.671 E9.80557
G1 X139.707 Y64.946 E9.81988
G1 X138.953 Y65.518 E9.85136
G1 X137.778 Y66.221 E9.8969
G1 X137.232 Y66.501 E9.91731
G1 X136.379 Y66.89 E9.94849
G1 X135.553 Y67.185 E9.97767
G1 X135.219 Y67.288 E9.98929
G1 X133.937 Y67.597 E10.03315
G1 X133.531 Y67.668 E10.04686
G1 X132.599 Y67.786 E10.07811
G1 X131.646 Y67.821 E10.10982
G1 X130.354 Y67.81 E10.1528
G1 X91.238 Y66.754 E11.45428
G1 X90.21 Y66.712 E11.4885
G1 X89.465 Y66.66 E11.51333
G1 X88.532 Y66.543 E11.54461
G1 X88.159 Y66.479 E11.5572
G1 X87.368 Y66.312 E11.58409
G1 X86.797 Y66.168 E11.60367
G1 X85.762 Y65.85 E11.63968
G1 X85.402 Y65.718 E11.65244
G1 X84.644 Y65.408 E11.67968
G1 X84.087 Y65.153 E11.70005
G1 X82.96 Y64.551 E11.74255
G1 X82.622 Y64.343 E11.75575
G1 X82.117 Y64.011 E11.77585
G1 X81.697 Y63.716 E11.79292
G1 X81.093 Y63.258 E11.81813
G1 X80.822 Y63.035 E11.8298
G1 X79.924 Y62.208 E11.87041
G1 X79.483 Y61.751 E11.89153
G1 X78.818 Y60.991 E11.92512
G1 X78.53 Y60.628 E11.94053
G1 X77.957 Y59.835 E11.97307
G1 X77.669 Y59.393 E11.99062
G1 X77.187 Y58.574 E12.02222
G1 X76.962 Y58.148 E12.03825
G1 X76.56 Y57.295 E12.06961
G1 X76.387 Y56.88 E12.08457
G1 X76.031 Y55.893 E12.11946
G1 X75.871 Y55.367 E12.13775
G1 X75.639 Y54.46 E12.16889
G1 X75.554 Y54.056 E12.18262
G1 X75.403 Y53.121 E12.21412
G1 X75.338 Y52.55 E12.23323
G1 X75.272 Y51.538 E12.26697
G1 X75.265 Y51.091 E12.28183
G1 X75.294 Y50.131 E12.31378
G1 X75.335 Y49.6 E12.33149
G1 X75.455 Y48.636 E12.3638
G1 X75.541 Y48.132 E12.38081
G1 X75.753 Y47.176 E12.41338
G1 X75.859 Y46.785 E12.42685
G1 X76.143 Y45.895 E12.45792
G1 X76.451 Y45.067 E12.48731
G1 X77.537 Y42.321 E12.58552
G1 X78.391 Y39.959 E12.66906
G1 X79.178 Y37.57 E12.75272
G1 X79.909 Y35.126 E12.83756
G1 X80.565 Y32.675 E12.92195
G1 X81.223 Y29.902 E13.01675
G1 X81.434 Y29.094 E13.04452
G1 X81.711 Y28.24 E13.07438
M204 S2000
G0 F7500 X82.086 Y28.38
M204 S500
G1 F1500 X82.242 Y27.961 E13.08925
G1 X82.651 Y27.013 E13.12359
G1 X82.85 Y26.609 E13.13857
G1 X83.355 Y25.693 E13.17336
G1 X83.911 Y24.864 E13.20656
G1 X84.317 Y24.313 E13.22932
G1 X85.155 Y23.316 E13.27264
G1 X85.436 Y23.022 E13.28617
G1 X86.175 Y22.323 E13.32
G1 X86.537 Y22.013 E13.33585
G1 X87.39 Y21.349 E13.37181
G1 X88.218 Y20.817 E13.40454
G1 X88.788 Y20.483 E13.42651
G1 X89.975 Y19.887 E13.47069
G1 X90.356 Y19.726 E13.48445
G1 X91.262 Y19.393 E13.51655
G1 X91.697 Y19.256 E13.53172
G1 X92.723 Y18.991 E13.56697
G1 X93.184 Y18.897 E13.58261
G1 X94.23 Y18.739 E13.6178
G1 X94.66 Y18.697 E13.63217
G1 X95.652 Y18.649 E13.6652
G1 X96.089 Y18.649 E13.67974
G1 X97.104 Y18.7 E13.71354
G1 X97.564 Y18.746 E13.72891
G1 X98.578 Y18.899 E13.76302
G1 X98.987 Y18.982 E13.7769
G1 X99.985 Y19.237 E13.81116
G1 X100.442 Y19.379 E13.82708
G1 X101.427 Y19.742 E13.86199
G1 X101.829 Y19.914 E13.87654
G1 X102.761 Y20.37 E13.91105
G1 X103.158 Y20.59 E13.92614
G1 X103.847 Y21.009 E13.95296
G1 X104.66 Y21.55 E13.98544
G1 X105.878 Y22.395 E14.03475
G1 X108.016 Y23.787 E14.1196
G1 X110.187 Y25.115 E14.20425
G1 X112.369 Y26.365 E14.28789
G1 X114.614 Y27.57 E14.37263
G1 X116.888 Y28.708 E14.45721
G1 X119.173 Y29.772 E14.54104
G1 X121.539 Y30.793 E14.62675
G1 X123.87 Y31.721 E14.7102
G1 X126.3 Y32.612 E14.79628
G1 X128.666 Y33.402 E14.87925
G1 X131.063 Y34.129 E14.96256
G1 X134.835 Y35.132 E15.09237
G1 X135.745 Y35.414 E15.12406
G1 X136.958 Y35.927 E15.16787
G1 X137.293 Y36.093 E15.1803
G1 X138.342 Y36.692 E15.22048
G1 X138.662 Y36.901 E15.23319
G1 X139.395 Y37.428 E15.26322
G1 X140.06 Y37.997 E15.29233
G1 X140.723 Y38.65 E15.32328
G1 X140.938 Y38.882 E15.3338
G1 X141.522 Y39.571 E15.36384
G1 X141.849 Y40.017 E15.38223
G1 X142.077 Y40.347 E15.39557
G1 X142.703 Y41.378 E15.43569
G1 X142.851 Y41.658 E15.44622
G1 X143.237 Y42.475 E15.47628
G1 X143.503 Y43.173 E15.50112
G1 X143.823 Y44.24 E15.53817
G1 X143.907 Y44.588 E15.55008
G1 X144.13 Y45.858 E15.59297
G1 X144.167 Y46.192 E15.60414
G1 X144.219 Y46.853 E15.6262
G1 X144.259 Y47.735 E15.65556
G1 X144.325 Y50.166 E15.73645
G1 X144.336 Y51.252 E15.77257
G1 X144.326 Y51.964 E15.79625
G1 X144.243 Y54.798 E15.89055
G1 X144.174 Y55.859 E15.92592
G1 X144.068 Y56.756 E15.95596
G1 X143.949 Y57.367 E15.97666
G1 X143.88 Y57.671 E15.98703
G1 X143.503 Y58.942 E16.03112
G1 X143.385 Y59.262 E16.04247
G1 X142.846 Y60.474 E16.08659
G1 X142.699 Y60.754 E16.0971
G1 X142.017 Y61.872 E16.14066
G1 X141.824 Y62.147 E16.15184
G1 X141.273 Y62.863 E16.18189
G1 X140.745 Y63.45 E16.20814
G1 X139.782 Y64.364 E16.2523
G1 X139.465 Y64.628 E16.26603
G1 X138.747 Y65.175 E16.29605
G1 X137.595 Y65.865 E16.34071
G1 X137.065 Y66.137 E16.36052
G1 X136.244 Y66.513 E16.39056
G1 X135.434 Y66.803 E16.41917
G1 X135.125 Y66.899 E16.42993
G1 X133.843 Y67.208 E16.4738
G1 X133.48 Y67.271 E16.48605
G1 X132.584 Y67.386 E16.51609
G1 X131.649 Y67.421 E16.54721
G1 X130.365 Y67.41 E16.58992
G1 X91.254 Y66.354 E17.89123
G1 X90.238 Y66.313 E17.92505
G1 X89.514 Y66.263 E17.94919
G1 X88.599 Y66.149 E17.97986
G1 X88.242 Y66.088 E17.99191
G1 X87.466 Y65.924 E18.01829
G1 X86.895 Y65.78 E18.03787
G1 X85.899 Y65.474 E18.07253
G1 X85.553 Y65.348 E18.08477
G1 X84.81 Y65.044 E18.11147
G1 X84.275 Y64.8 E18.13103
G1 X83.148 Y64.198 E18.17353
G1 X82.842 Y64.009 E18.18549
G1 X82.347 Y63.683 E18.2052
G1 X81.939 Y63.397 E18.22178
G1 X81.335 Y62.939 E18.24699
G1 X81.093 Y62.741 E18.25739
G1 X80.212 Y61.93 E18.29722
G1 X79.771 Y61.473 E18.31834
G1 X79.131 Y60.742 E18.35065
G1 X78.854 Y60.394 E18.36545
G1 X78.292 Y59.616 E18.39737
G1 X78.014 Y59.19 E18.41429
G1 X77.541 Y58.387 E18.44528
G1 X77.324 Y57.977 E18.46071
G1 X76.929 Y57.141 E18.49147
G1 X76.763 Y56.744 E18.50578
G1 X76.414 Y55.777 E18.53997
G1 X76.254 Y55.251 E18.55826
G1 X76.03 Y54.378 E18.58823
G1 X75.949 Y53.992 E18.60135
G1 X75.798 Y53.057 E18.63285
G1 X75.737 Y52.524 E18.6507
G1 X75.672 Y51.531 E18.68379
G1 X75.665 Y51.103 E18.69803
G1 X75.693 Y50.161 E18.72938
G1 X75.732 Y49.649 E18.74646
G1 X75.849 Y48.703 E18.77816
G1 X75.932 Y48.218 E18.79452
G1 X76.139 Y47.28 E18.82647
G1 X76.24 Y46.906 E18.83936
G1 X76.518 Y46.034 E18.8698
G1 X76.823 Y45.214 E18.8989
G1 X77.909 Y42.468 E18.99711
G1 X78.767 Y40.095 E19.08104
G1 X79.558 Y37.695 E19.16509
G1 X80.292 Y35.241 E19.25028
G1 X80.951 Y32.778 E19.33508
G1 X81.61 Y30.003 E19.42995
G1 X81.815 Y29.217 E19.45696
G1 X82.086 Y28.38 E19.48623
M204 S2000
G1 F2400 E18.68623
;MESH:Card Lever v5.stl
G0 F7500 X90.764 Y33.224
G0 X96.071 Y37.117
M204 S500
;TYPE:WALL-INNER
G1 F2400 E19.48623
G1 F1500 X96.446 Y37.079 E19.49876
G1 X96.853 Y36.995 E19.51258
G1 X97.192 Y36.888 E19.52441
G1 X97.574 Y36.724 E19.53823
G1 X97.904 Y36.542 E19.55077
G1 X98.227 Y36.316 E19.56388
G1 X98.512 Y36.071 E19.57638
G1 X98.79 Y35.779 E19.58979
G1 X99.036 Y35.461 E19.60316
G1 X99.233 Y35.143 E19.6156
G1 X99.405 Y34.796 E19.62849
G1 X99.538 Y34.432 E19.64137
G1 X99.641 Y34.04 E19.65486
G1 X99.696 Y33.672 E19.66723
G1 X99.716 Y33.279 E19.68032
G1 X99.696 Y32.884 E19.69347
G1 X99.641 Y32.516 E19.70585
G1 X99.538 Y32.124 E19.71933
G1 X99.405 Y31.76 E19.73222
G1 X99.232 Y31.409 E19.74523
G1 X99.036 Y31.096 E19.75752
G1 X98.79 Y30.779 E19.77086
G1 X98.512 Y30.485 E19.78432
G1 X98.226 Y30.239 E19.79687
G1 X97.902 Y30.012 E19.81003
G1 X97.575 Y29.832 E19.82244
G1 X97.193 Y29.668 E19.83627
G1 X96.853 Y29.561 E19.84812
G1 X96.446 Y29.478 E19.86194
G1 X96.071 Y29.44 E19.87448
G1 X95.675 Y29.439 E19.88765
G1 X95.3 Y29.477 E19.90018
G1 X94.893 Y29.561 E19.91401
G1 X94.553 Y29.668 E19.92586
G1 X94.17 Y29.832 E19.93972
G1 X93.845 Y30.013 E19.95209
G1 X93.513 Y30.244 E19.96554
G1 X93.237 Y30.481 E19.97764
G1 X92.956 Y30.777 E19.99122
G1 X92.72 Y31.082 E20.00404
G1 X92.508 Y31.419 E20.01729
G1 X92.341 Y31.76 E20.02991
G1 X92.208 Y32.124 E20.0428
G1 X92.105 Y32.516 E20.05628
