;FLAVOR:Marlin
;TIME:7811
;Filament used: 6.71533m
;Layer height: 0.2
;MINX:48.2
;MINY:17.558
;MINZ:0.2
;MAXX:171.8
;MAXY:99.883
;MAXZ:14
;TARGET_MACHINE.NAME:Creality Ender-3 S1 Pro
;Generated with Cura_SteamEngine 5.6.0
M82 ;absolute extrusion mode
; Ender 3 S1 Pro Start G-code
; M413 S0 ; Disable power loss recovery
G92 E0 ; Reset Extruder

; Prep surfaces before auto home for better accuracy
M140 S60
M104 S200

G28 ; Home all axes
G1 Z10.0 F3000 ; Move Z Axis up little to prevent scratching of Heat Bed
G1 X0 Y0

M190 S60
M109 S200

G1 X0.1 Y20 Z0.3 F5000.0 ; Move to start position
G1 X0.1 Y200.0 Z0.3 F1500.0 E15 ; Draw the first line
G1 X0.4 Y200.0 Z0.3 F5000.0 ; Move to side a little
G1 X0.4 Y20 Z0.3 F1500.0 E30 ; Draw the second line
G92 E0 ; Reset Extruder
G1 Z2.0 F3000 ; Move Z Axis up little to prevent scratching of Heat Bed
G1 X5 Y20 Z0.3 F5000.0 ; Move over to prevent blob squish

G92 E0
G92 E0
G1 F2400 E-0.8
;LAYER_COUNT:70
;LAYER:0
M107
M204 S2000
G0 F7500 X49.351 Y23.688 Z0.2
M204 S500
;TYPE:SKIRT
G1 F2400 E0
G1 F1500 X49.821 Y22.835 E0.03239
G1 X50.364 Y22.027 E0.06477
G1 X50.931 Y21.323 E0.09484
G1 X51.656 Y20.571 E0.12958
G1 X52.392 Y19.934 E0.16195
G1 X53.124 Y19.404 E0.19201
G1 X54.021 Y18.869 E0.22675
G1 X54.899 Y18.448 E0.25914
G1 X55.812 Y18.106 E0.29156
G1 X56.749 Y17.847 E0.3239
G1 X57.716 Y17.669 E0.3566
G1 X58.855 Y17.573 E0.39462
G1 X59.512 Y17.558 E0.41647
G1 X160.104 Y17.558 E3.76218
G1 X160.984 Y17.571 E3.79145
G1 X161.956 Y17.63 E3.82384
G1 X162.919 Y17.776 E3.85623
G1 X163.866 Y18.007 E3.88865
G1 X164.754 Y18.307 E3.91983
G1 X165.646 Y18.697 E3.95221
G1 X166.529 Y19.184 E3.98575
G1 X167.28 Y19.686 E4.01579
G1 X168.095 Y20.344 E4.05063
G1 X168.793 Y21.022 E4.083
G1 X169.429 Y21.759 E4.11538
G1 X169.999 Y22.549 E4.14778
G1 X170.461 Y23.325 E4.17781
G1 X170.915 Y24.267 E4.21259
G1 X171.244 Y25.145 E4.24378
G1 X171.513 Y26.117 E4.27732
G1 X171.69 Y27.083 E4.30999
G1 X171.785 Y28.213 E4.3477
G1 X171.8 Y28.888 E4.37016
G1 X171.799 Y88.283 E6.34565
G1 X171.788 Y89.046 E6.37103
G1 X171.731 Y90.019 E6.40344
G1 X171.586 Y90.982 E6.43583
G1 X171.357 Y91.928 E6.46821
G1 X171.046 Y92.852 E6.50063
G1 X170.654 Y93.743 E6.53301
G1 X170.186 Y94.595 E6.56534
G1 X169.664 Y95.376 E6.59659
G1 X169.031 Y96.161 E6.63013
G1 X168.406 Y96.812 E6.66014
G1 X167.617 Y97.5 E6.69496
G1 X166.857 Y98.05 E6.72616
G1 X165.99 Y98.567 E6.75974
G1 X165.112 Y98.989 E6.79214
G1 X164.201 Y99.331 E6.8245
G1 X163.262 Y99.592 E6.85692
G1 X162.296 Y99.77 E6.88959
G1 X161.145 Y99.868 E6.92801
G1 X160.47 Y99.883 E6.95046
G1 X59.764 Y99.882 E10.29996
G1 X59.031 Y99.871 E10.32434
G1 X58.059 Y99.814 E10.35673
G1 X57.096 Y99.668 E10.38912
G1 X56.15 Y99.439 E10.42149
G1 X55.226 Y99.127 E10.45393
G1 X54.336 Y98.735 E10.48628
G1 X53.513 Y98.284 E10.51749
G1 X52.674 Y97.723 E10.55106
G1 X51.97 Y97.157 E10.5811
G1 X51.217 Y96.432 E10.61587
G1 X50.58 Y95.696 E10.64824
G1 X50.05 Y94.965 E10.67828
G1 X49.514 Y94.068 E10.71303
G1 X49.092 Y93.19 E10.74543
G1 X48.75 Y92.278 E10.77783
G1 X48.49 Y91.34 E10.8102
G1 X48.312 Y90.371 E10.84297
G1 X48.214 Y89.192 E10.88232
G1 X48.2 Y88.541 E10.90398
G1 X48.201 Y29.083 E12.88156
G1 X48.212 Y28.383 E12.90484
G1 X48.27 Y27.41 E12.93726
G1 X48.416 Y26.447 E12.96966
G1 X48.646 Y25.501 E13.00204
G1 X48.959 Y24.578 E13.03445
G1 X49.351 Y23.688 E13.0668
M204 S2000
G0 F7500 X49.702 Y23.88
M204 S500
G1 F1500 X50.153 Y23.058 E13.09798
G1 X50.676 Y22.278 E13.12922
G1 X51.243 Y21.574 E13.15928
G1 X51.918 Y20.873 E13.19165
G1 X52.627 Y20.258 E13.22287
G1 X53.359 Y19.728 E13.25293
G1 X54.195 Y19.229 E13.28531
G1 X55.04 Y18.822 E13.3165
G1 X55.919 Y18.491 E13.34774
G1 X56.822 Y18.24 E13.37892
G1 X57.75 Y18.068 E13.41031
G1 X58.889 Y17.972 E13.44832
G1 X59.521 Y17.958 E13.46935
G1 X160.098 Y17.958 E16.81455
G1 X160.96 Y17.97 E16.84323
G1 X161.897 Y18.026 E16.87445
G1 X162.825 Y18.165 E16.90566
G1 X163.738 Y18.386 E16.9369
G1 X164.594 Y18.674 E16.96694
G1 X165.486 Y19.064 E16.99932
G1 X166.307 Y19.517 E17.03051
G1 X167.058 Y20.019 E17.06055
G1 X167.817 Y20.631 E17.09298
G1 X168.491 Y21.284 E17.12419
G1 X169.105 Y21.993 E17.15539
G1 X169.655 Y22.754 E17.18662
G1 X170.117 Y23.53 E17.21666
G1 X170.54 Y24.407 E17.24904
G1 X170.869 Y25.285 E17.28023
G1 X171.12 Y26.19 E17.31146
G1 X171.291 Y27.117 E17.34282
G1 X171.386 Y28.247 E17.38053
G1 X171.4 Y28.888 E17.40186
G1 X171.399 Y88.278 E19.37718
G1 X171.389 Y89.023 E19.40196
G1 X171.335 Y89.96 E19.43317
G1 X171.197 Y90.889 E19.46441
G1 X170.978 Y91.801 E19.49561
G1 X170.68 Y92.691 E19.52682
G1 X170.303 Y93.551 E19.55805
G1 X169.853 Y94.373 E19.58922
G1 X169.331 Y95.154 E19.62047
G1 X168.742 Y95.884 E19.65167
G1 X168.117 Y96.535 E19.68168
G1 X167.382 Y97.176 E19.71412
G1 X166.622 Y97.726 E19.74532
G1 X165.816 Y98.207 E19.77654
G1 X164.971 Y98.615 E19.80775
G1 X164.093 Y98.946 E19.83896
G1 X163.189 Y99.199 E19.87018
G1 X162.262 Y99.371 E19.90154
G1 X161.111 Y99.469 E19.93996
G1 X160.47 Y99.483 E19.96128
G1 X59.77 Y99.482 E23.31058
G1 X59.054 Y99.472 E23.3344
G1 X58.118 Y99.418 E23.36558
G1 X57.189 Y99.279 E23.39682
G1 X56.277 Y99.06 E23.42802
G1 X55.387 Y98.761 E23.45924
G1 X54.528 Y98.384 E23.49045
G1 X53.705 Y97.933 E23.52166
G1 X52.925 Y97.411 E23.55288
G1 X52.221 Y96.845 E23.58292
G1 X51.519 Y96.17 E23.61531
G1 X50.904 Y95.461 E23.64653
G1 X50.374 Y94.73 E23.67656
G1 X49.874 Y93.894 E23.70896
G1 X49.466 Y93.049 E23.74017
G1 X49.135 Y92.171 E23.77138
G1 X48.883 Y91.267 E23.80259
G1 X48.711 Y90.338 E23.83401
G1 X48.613 Y89.159 E23.87336
G1 X48.6 Y88.541 E23.89392
G1 X48.601 Y29.089 E25.8713
G1 X48.611 Y28.406 E25.89402
G1 X48.666 Y27.469 E25.92524
G1 X48.805 Y26.541 E25.95645
G1 X49.025 Y25.629 E25.98765
G1 X49.325 Y24.739 E26.01889
G1 X49.702 Y23.88 E26.05009
M204 S2000
G0 F7500 X50.053 Y24.072
M204 S500
G1 F1500 X50.486 Y23.28 E26.08011
G1 X50.988 Y22.529 E26.11016
G1 X51.555 Y21.825 E26.14022
G1 X52.181 Y21.175 E26.17024
G1 X52.862 Y20.582 E26.20027
G1 X53.594 Y20.052 E26.23033
G1 X54.369 Y19.589 E26.26036
G1 X55.182 Y19.196 E26.29039
G1 X56.027 Y18.876 E26.32044
G1 X56.896 Y18.633 E26.35046
G1 X57.784 Y18.467 E26.3805
G1 X58.923 Y18.371 E26.41852
G1 X59.53 Y18.358 E26.43871
G1 X160.093 Y18.358 E29.78345
G1 X160.937 Y18.369 E29.81153
G1 X161.839 Y18.422 E29.84158
G1 X162.732 Y18.554 E29.8716
G1 X163.61 Y18.765 E29.90164
G1 X164.466 Y19.053 E29.93168
G1 X165.293 Y19.415 E29.9617
G1 X166.085 Y19.85 E29.99176
G1 X166.836 Y20.352 E30.0218
G1 X167.539 Y20.919 E30.05184
G1 X168.189 Y21.546 E30.08188
G1 X168.781 Y22.228 E30.11191
G1 X169.311 Y22.959 E30.14195
G1 X169.773 Y23.735 E30.17198
G1 X170.166 Y24.548 E30.20202
G1 X170.484 Y25.393 E30.23205
G1 X170.727 Y26.263 E30.26209
G1 X170.892 Y27.151 E30.29213
G1 X170.987 Y28.281 E30.32985
G1 X171 Y28.888 E30.35004
G1 X170.999 Y88.273 E32.32519
G1 X170.99 Y89 E32.34938
G1 X170.939 Y89.902 E32.37943
G1 X170.808 Y90.796 E32.40948
G1 X170.599 Y91.674 E32.4395
G1 X170.313 Y92.531 E32.46954
G1 X169.952 Y93.359 E32.49959
G1 X169.52 Y94.151 E32.52959
G1 X169.019 Y94.903 E32.55965
G1 X168.453 Y95.607 E32.58969
G1 X167.828 Y96.258 E32.61971
G1 X167.147 Y96.852 E32.64976
G1 X166.416 Y97.383 E32.67981
G1 X165.642 Y97.847 E32.70983
G1 X164.829 Y98.241 E32.73988
G1 X163.985 Y98.561 E32.7699
G1 X163.115 Y98.806 E32.79996
G1 X162.228 Y98.972 E32.82997
G1 X161.077 Y99.07 E32.8684
G1 X160.47 Y99.083 E32.88859
G1 X59.775 Y99.082 E36.23772
G1 X59.077 Y99.073 E36.26094
G1 X58.176 Y99.022 E36.29095
G1 X57.282 Y98.89 E36.32101
G1 X56.404 Y98.681 E36.35103
G1 X55.547 Y98.394 E36.38109
G1 X54.72 Y98.033 E36.4111
G1 X53.927 Y97.6 E36.44115
G1 X53.176 Y97.099 E36.47118
G1 X52.472 Y96.533 E36.50122
G1 X51.821 Y95.907 E36.53126
G1 X51.228 Y95.226 E36.56129
G1 X50.698 Y94.495 E36.59132
G1 X50.234 Y93.72 E36.62137
G1 X49.84 Y92.907 E36.65142
G1 X49.52 Y92.063 E36.68144
G1 X49.276 Y91.193 E36.71149
G1 X49.11 Y90.305 E36.74154
G1 X49.013 Y89.15 E36.78009
G1 X49 Y88.541 E36.80035
G1 X49.001 Y29.094 E38.77756
G1 X49.01 Y28.429 E38.79968
G1 X49.062 Y27.527 E38.82973
G1 X49.194 Y26.634 E38.85976
G1 X49.404 Y25.756 E38.88978
G1 X49.691 Y24.899 E38.91984
G1 X50.053 Y24.072 E38.94987
M204 S2000
G1 F2400 E38.14987
;MESH:wallet v1.stl
G0 F7500 X58.535 Y28.978
G0 X59.801 Y88.283
M204 S500
;TYPE:WALL-INNER
G1 F2400 E38.94987
G1 F1500 X160.2 Y88.283 E42.28915
G1 X160.2 Y29.159 E44.25563
G1 X59.801 Y29.159 E47.59491
G1 X59.801 Y88.283 E49.56138
M204 S2000
G0 F7500 X59.401 Y88.683
M204 S500
;TYPE:WALL-OUTER
G1 F1500 X160.6 Y88.683 E52.92728
G1 X160.6 Y28.759 E54.92036
G1 X59.401 Y28.759 E58.28625
G1 X59.401 Y88.683 E60.27933
M204 S2000
G0 F7500 X59.67 Y88.413
G0 X59.901 Y87.923
G0 X60.161 Y87.923
M204 S500
;TYPE:SKIN
G1 F1500 X60.161 Y29.519 E62.22185
G1 X159.84 Y29.519 E65.53719
G1 X159.84 Y87.923 E67.47972
G1 X60.161 Y87.923 E70.79505
M204 S2000
G0 F7500 X60.569 Y87.722
M204 S500
G1 F1500 X60.36 Y87.513 E70.80488
M204 S2000
G0 F7500 X60.36 Y86.947
M204 S500
G1 F1500 X61.135 Y87.722 E70.84134
M204 S2000
G0 F7500 X61.7 Y87.722
M204 S500
G1 F1500 X60.36 Y86.382 E70.90437
M204 S2000
G0 F7500 X60.36 Y85.816
M204 S500
G1 F1500 X62.266 Y87.722 E70.99402
M204 S2000
G0 F7500 X62.832 Y87.722
M204 S500
G1 F1500 X60.36 Y85.25 E71.11029
M204 S2000
G0 F7500 X60.36 Y84.685
M204 S500
G1 F1500 X63.397 Y87.722 E71.25315
M204 S2000
G0 F7500 X63.963 Y87.722
M204 S500
G1 F1500 X60.36 Y84.119 E71.42262
M204 S2000
G0 F7500 X60.36 Y83.553
M204 S500
G1 F1500 X64.529 Y87.722 E71.61872
M204 S2000
G0 F7500 X65.094 Y87.722
M204 S500
G1 F1500 X60.36 Y82.988 E71.84139
M204 S2000
G0 F7500 X60.36 Y82.422
M204 S500
G1 F1500 X65.66 Y87.722 E72.09068
M204 S2000
G0 F7500 X66.226 Y87.722
M204 S500
G1 F1500 X60.36 Y81.856 E72.3666
M204 S2000
G0 F7500 X60.36 Y81.291
M204 S500
G1 F1500 X66.791 Y87.722 E72.6691
M204 S2000
G0 F7500 X67.357 Y87.722
M204 S500
G1 F1500 X60.36 Y80.725 E72.99822
M204 S2000
G0 F7500 X60.36 Y80.159
M204 S500
G1 F1500 X67.923 Y87.722 E73.35396
M204 S2000
G0 F7500 X68.488 Y87.722
M204 S500
G1 F1500 X60.36 Y79.594 E73.73627
M204 S2000
G0 F7500 X60.36 Y79.028
M204 S500
G1 F1500 X69.054 Y87.722 E74.14521
M204 S2000
G0 F7500 X69.62 Y87.722
M204 S500
G1 F1500 X60.36 Y78.462 E74.58077
M204 S2000
G0 F7500 X60.36 Y77.897
M204 S500
G1 F1500 X70.186 Y87.722 E75.04293
M204 S2000
G0 F7500 X70.751 Y87.722
M204 S500
G1 F1500 X60.36 Y77.331 E75.5317
M204 S2000
G0 F7500 X60.36 Y76.765
M204 S500
G1 F1500 X71.317 Y87.722 E76.04708
M204 S2000
G0 F7500 X71.883 Y87.722
M204 S500
G1 F1500 X60.36 Y76.199 E76.58909
M204 S2000
G0 F7500 X60.36 Y75.634
M204 S500
G1 F1500 X72.448 Y87.722 E77.15767
M204 S2000
G0 F7500 X73.014 Y87.722
M204 S500
G1 F1500 X60.36 Y75.068 E77.75287
M204 S2000
G0 F7500 X60.36 Y74.502
M204 S500
G1 F1500 X73.58 Y87.722 E78.3747
M204 S2000
G0 F7500 X74.145 Y87.722
M204 S500
G1 F1500 X60.36 Y73.937 E79.02311
M204 S2000
G0 F7500 X60.36 Y73.371
M204 S500
G1 F1500 X74.711 Y87.722 E79.69813
M204 S2000
G0 F7500 X75.277 Y87.722
M204 S500
G1 F1500 X60.36 Y72.805 E80.39978
M204 S2000
G0 F7500 X60.36 Y72.24
M204 S500
G1 F1500 X75.842 Y87.722 E81.12801
M204 S2000
G0 F7500 X76.408 Y87.722
M204 S500
G1 F1500 X60.36 Y71.674 E81.88286
M204 S2000
G0 F7500 X60.36 Y71.108
M204 S500
G1 F1500 X76.974 Y87.722 E82.66433
M204 S2000
G0 F7500 X77.539 Y87.722
M204 S500
G1 F1500 X60.36 Y70.543 E83.47238
M204 S2000
G0 F7500 X60.36 Y69.977
M204 S500
G1 F1500 X78.105 Y87.722 E84.30705
M204 S2000
G0 F7500 X78.671 Y87.722
M204 S500
G1 F1500 X60.36 Y69.411 E85.16834
M204 S2000
G0 F7500 X60.36 Y68.846
M204 S500
G1 F1500 X79.236 Y87.722 E86.05621
M204 S2000
G0 F7500 X79.802 Y87.722
M204 S500
G1 F1500 X60.36 Y68.28 E86.9707
M204 S2000
G0 F7500 X60.36 Y67.714
M204 S500
G1 F1500 X80.368 Y87.722 E87.91182
M204 S2000
G0 F7500 X80.934 Y87.722
M204 S500
G1 F1500 X60.36 Y67.148 E88.87955
M204 S2000
G0 F7500 X60.36 Y66.583
M204 S500
G1 F1500 X81.499 Y87.722 E89.87387
M204 S2000
G0 F7500 X82.065 Y87.722
M204 S500
G1 F1500 X60.36 Y66.017 E90.8948
M204 S2000
G0 F7500 X60.36 Y65.451
M204 S500
G1 F1500 X82.631 Y87.722 E91.94236
M204 S2000
G0 F7500 X83.196 Y87.722
M204 S500
G1 F1500 X60.36 Y64.886 E93.0165
M204 S2000
G0 F7500 X60.36 Y64.32
M204 S500
G1 F1500 X83.762 Y87.722 E94.11726
M204 S2000
G0 F7500 X84.328 Y87.722
M204 S500
G1 F1500 X60.36 Y63.754 E95.24464
M204 S2000
G0 F7500 X60.36 Y63.189
M204 S500
G1 F1500 X84.893 Y87.722 E96.3986
M204 S2000
G0 F7500 X85.459 Y87.722
M204 S500
G1 F1500 X60.36 Y62.623 E97.57918
M204 S2000
G0 F7500 X60.36 Y62.057
M204 S500
G1 F1500 X86.025 Y87.722 E98.78638
M204 S2000
G0 F7500 X86.59 Y87.722
M204 S500
G1 F1500 X60.36 Y61.492 E100.02016
M204 S2000
G0 F7500 X60.36 Y60.926
M204 S500
G1 F1500 X87.156 Y87.722 E101.28056
M204 S2000
G0 F7500 X87.722 Y87.722
M204 S500
G1 F1500 X60.36 Y60.36 E102.56758
M204 S2000
G0 F7500 X60.36 Y59.795
M204 S500
G1 F1500 X88.287 Y87.722 E103.88118
M204 S2000
G0 F7500 X88.853 Y87.722
M204 S500
G1 F1500 X60.36 Y59.229 E105.22141
M204 S2000
G0 F7500 X60.36 Y58.663
M204 S500
G1 F1500 X89.419 Y87.722 E106.58825
M204 S2000
G0 F7500 X89.984 Y87.722
M204 S500
G1 F1500 X60.36 Y58.098 E107.98168
M204 S2000
G0 F7500 X60.36 Y57.532
M204 S500
G1 F1500 X90.55 Y87.722 E109.40172
M204 S2000
G0 F7500 X91.116 Y87.722
M204 S500
G1 F1500 X60.36 Y56.966 E110.84839
M204 S2000
G0 F7500 X60.36 Y56.4
M204 S500
G1 F1500 X91.682 Y87.722 E112.32168
M204 S2000
G0 F7500 X92.247 Y87.722
M204 S500
G1 F1500 X60.36 Y55.835 E113.82155
M204 S2000
G0 F7500 X60.36 Y55.269
M204 S500
G1 F1500 X92.813 Y87.722 E115.34804
M204 S2000
G0 F7500 X93.379 Y87.722
M204 S500
G1 F1500 X60.36 Y54.703 E116.90115
M204 S2000
G0 F7500 X60.36 Y54.138
M204 S500
G1 F1500 X93.944 Y87.722 E118.48084
M204 S2000
G0 F7500 X94.51 Y87.722
M204 S500
G1 F1500 X60.36 Y53.572 E120.08715
M204 S2000
G0 F7500 X60.36 Y53.006
M204 S500
G1 F1500 X95.076 Y87.722 E121.72008
M204 S2000
G0 F7500 X95.641 Y87.722
M204 S500
G1 F1500 X60.36 Y52.441 E123.37959
M204 S2000
G0 F7500 X60.36 Y51.875
M204 S500
G1 F1500 X96.207 Y87.722 E125.06573
M204 S2000
G0 F7500 X96.773 Y87.722
M204 S500
G1 F1500 X60.36 Y51.309 E126.77848
M204 S2000
G0 F7500 X60.36 Y50.744
M204 S500
G1 F1500 X97.338 Y87.722 E128.51781
M204 S2000
G0 F7500 X97.904 Y87.722
M204 S500
G1 F1500 X60.36 Y50.178 E130.28377
M204 S2000
G0 F7500 X60.36 Y49.612
M204 S500
G1 F1500 X98.47 Y87.722 E132.07635
M204 S2000
G0 F7500 X99.035 Y87.722
M204 S500
G1 F1500 X60.36 Y49.047 E133.8955
M204 S2000
G0 F7500 X60.36 Y48.481
M204 S500
G1 F1500 X99.601 Y87.722 E135.74128
M204 S2000
G0 F7500 X100.167 Y87.722
M204 S500
G1 F1500 X60.36 Y47.915 E137.61367
M204 S2000
G0 F7500 X60.36 Y47.349
M204 S500
G1 F1500 X100.733 Y87.722 E139.5127
M204 S2000
G0 F7500 X101.298 Y87.722
M204 S500
G1 F1500 X60.36 Y46.784 E141.43829
M204 S2000
G0 F7500 X60.36 Y46.218
M204 S500
G1 F1500 X101.864 Y87.722 E143.39052
M204 S2000
G0 F7500 X102.43 Y87.722
M204 S500
G1 F1500 X60.36 Y45.652 E145.36936
M204 S2000
G0 F7500 X60.36 Y45.087
M204 S500
G1 F1500 X102.995 Y87.722 E147.37478
M204 S2000
G0 F7500 X103.561 Y87.722
M204 S500
G1 F1500 X60.36 Y44.521 E149.40682
M204 S2000
G0 F7500 X60.36 Y43.955
M204 S500
G1 F1500 X104.127 Y87.722 E151.46549
M204 S2000
G0 F7500 X104.692 Y87.722
M204 S500
G1 F1500 X60.36 Y43.39 E153.55073
M204 S2000
G0 F7500 X60.36 Y42.824
M204 S500
G1 F1500 X105.258 Y87.722 E155.66259
M204 S2000
G0 F7500 X105.824 Y87.722
M204 S500
G1 F1500 X60.36 Y42.258 E157.80108
M204 S2000
G0 F7500 X60.36 Y41.693
M204 S500
G1 F1500 X106.389 Y87.722 E159.96614
M204 S2000
